X: 27291
T: Miss Walsh
R: jig
M: 6/8
K: Gmajor
CDF AFF|cFF AFF|CDF AFF|~GAG GFD|
CDF AFF|cFF AFF|~fef cAF|1 GFD F2:|2 GFD FAc||
|:~fef cdc|AFA cde|f2 d cAF|GFD FDC|
~fef cdc|AFA cde|f2 d cAF|1 GFD FAc:|2 GFD F2||
CDF Acc|Bdd Acc|CDF AcA|GFD FDC|
CDF Acc|Bdd Acc|~fef cAF|GFD F2:|
DEG BGG|dGG BGG|DEG BGG|ABA AGE|
DEG BGG|dGG BGG|gfg dBG|1 AGE G2:|2 AGE GBd||
gfg ded|BGB def|g2 e dBG|AGE GED|
gfg ded|BGB def|g2 e dBG|1 AGE GBd:|2 AGE G2||
DEG Bdd|cee Bdd|DEG BdB|AGE GED|
DEG Bdd|cee Bdd|gfg dBG|AGE G2:|

